X:238
T:Saturday Night - Bledington
M:6/8
L:1/8
K:G
A | BAB/2c/2 d2 D | EAG FED | BAB/2c/2 d2 D
|1 DEF G2 :|2 DEF G3 ||
AFD D2 D | EFG FED | BAG Bcd
|1 DGF G3 :|2 DGF G2 ||
